public/assets/copyIcon.svg

<svg width="58" height="58" viewBox="0 0 58 58" fill="none" xmlns="http://www.w3.org/2000/svg">
<g filter="url(#filter0_d_1:961)">
<circle cx="29" cy="25" r="9" fill="white"/>
</g>
<g clip-path="url(#clip0_1:961)">
<path d="M32.2726 23.7729H28.5908C28.1389 23.7729 27.7726 24.1393 27.7726 24.5911V28.2729C27.7726 28.7248 28.1389 29.0911 28.5908 29.0911H32.2726C32.7245 29.0911 33.0908 28.7248 33.0908 28.2729V24.5911C33.0908 24.1393 32.7245 23.7729 32.2726 23.7729Z" stroke="black" stroke-width="0.5" stroke-linecap="round" stroke-linejoin="round"/>
<path d="M26.1363 26.2274H25.7272C25.5102 26.2274 25.3021 26.1412 25.1487 25.9877C24.9953 25.8343 24.9091 25.6262 24.9091 25.4092V21.7274C24.9091 21.5104 24.9953 21.3023 25.1487 21.1488C25.3021 20.9954 25.5102 20.9092 25.7272 20.9092H29.4091C29.6261 20.9092 29.8342 20.9954 29.9876 21.1488C30.141 21.3023 30.2272 21.5104 30.2272 21.7274V22.1365" stroke="black" stroke-width="0.5" stroke-linecap="round" stroke-linejoin="round"/>
</g>
<defs>
<filter id="filter0_d_1:961" x="0" y="0" width="58" height="58" filterUnits="userSpaceOnUse" color-interpolation-filters="sRGB">
<feFlood flood-opacity="0" result="BackgroundImageFix"/>
<feColorMatrix in="SourceAlpha" type="matrix" values="0 0 0 0 0 0 0 0 0 0 0 0 0 0 0 0 0 0 127 0" result="hardAlpha"/>
<feMorphology radius="4" operator="dilate" in="SourceAlpha" result="effect1_dropShadow_1:961"/>
<feOffset dy="4"/>
<feGaussianBlur stdDeviation="8"/>
<feComposite in2="hardAlpha" operator="out"/>
<feColorMatrix type="matrix" values="0 0 0 0 0.770833 0 0 0 0 0.770833 0 0 0 0 0.770833 0 0 0 0.25 0"/>
<feBlend mode="normal" in2="BackgroundImageFix" result="effect1_dropShadow_1:961"/>
<feBlend mode="normal" in="SourceGraphic" in2="effect1_dropShadow_1:961" result="shape"/>
</filter>
<clipPath id="clip0_1:961">
<rect width="9.81818" height="9.81818" fill="white" transform="translate(24.0908 20.0911)"/>
</clipPath>
</defs>
</svg>

<svg width="58" height="58" fill="none" xmlns="http://www.w3.org/2000/svg"><g filter="url(#a)"><circle cx="29" cy="25" r="9" fill="#fff"/></g><g clip-path="url(#b)" stroke="#000" stroke-width=".5" stroke-linecap="round" stroke-linejoin="round"><path d="M32.273 23.773H28.59a.818.818 0 0 0-.818.818v3.682c0 .452.366.818.818.818h3.682a.818.818 0 0 0 .818-.818V24.59a.818.818 0 0 0-.818-.818Z"/><path d="M26.136 26.227h-.409a.818.818 0 0 1-.818-.818v-3.682a.819.819 0 0 1 .818-.818h3.682a.818.818 0 0 1 .818.818v.41"/></g><defs><clipPath id="b"><path fill="#fff" transform="translate(24.09 20.091)" d="M0 0h9.818v9.818H0z"/></clipPath><filter id="a" x="0" y="0" width="58" height="58" filterUnits="userSpaceOnUse" color-interpolation-filters="sRGB"><feFlood flood-opacity="0" result="BackgroundImageFix"/><feColorMatrix in="SourceAlpha" values="0 0 0 0 0 0 0 0 0 0 0 0 0 0 0 0 0 0 127 0" result="hardAlpha"/><feMorphology radius="4" operator="dilate" in="SourceAlpha" result="effect1_dropShadow_1:961"/><feOffset dy="4"/><feGaussianBlur stdDeviation="8"/><feComposite in2="hardAlpha" operator="out"/><feColorMatrix values="0 0 0 0 0.770833 0 0 0 0 0.770833 0 0 0 0 0.770833 0 0 0 0.25 0"/><feBlend in2="BackgroundImageFix" result="effect1_dropShadow_1:961"/><feBlend in="SourceGraphic" in2="effect1_dropShadow_1:961" result="shape"/></filter></defs></svg>
